report_00007_2020-12-11T15:55:29.892Z/mainthread-work-breakdown/comparison/sorted/5_vs_6.svg

<svg width="640" height="500" xmlns="http://www.w3.org/2000/svg" xmlns:xlink="http://www.w3.org/1999/xlink"><path fill="#fff" d="M0 0h640v500H0z"/><defs><path id="d" stroke-width=".222" stroke="currentColor" d="M-1-1h2v2h-2z"/><path id="b" stroke-width=".222" stroke="currentColor" d="M0-1.33l-1.33 2h2.66z"/><path id="f" stroke-width=".222" stroke="currentColor" d="M0 1.33L1.265.411.782-1.067l-1.564-.009-.483 1.487z"/><use xlink:href="#b" id="c" stroke="currentColor" transform="rotate(180)"/><use xlink:href="#d" id="e" stroke="currentColor" transform="rotate(45)"/><circle id="a" stroke-width=".222" stroke="currentColor" cx="0" cy="0" r="1"/></defs><g fill="none" color="#000" stroke="currentColor"><path stroke="#000" d="M53.9 369.4h9m552.1 0h-9"/><text transform="translate(45.6 373.3)" stroke="none" fill="#000" font-family="Arial" font-size="12" text-anchor="end"><tspan>600</tspan></text></g><g fill="none" color="#000" stroke="currentColor"><path stroke="#000" d="M53.9 309.2h9m552.1 0h-9"/><text transform="translate(45.6 313.1)" stroke="none" fill="#000" font-family="Arial" font-size="12" text-anchor="end"><tspan>650</tspan></text></g><g fill="none" color="#000" stroke="currentColor"><path stroke="#000" d="M53.9 249.1h9m552.1 0h-9"/><text transform="translate(45.6 253)" stroke="none" fill="#000" font-family="Arial" font-size="12" text-anchor="end"><tspan>700</tspan></text></g><g fill="none" color="#000" stroke="currentColor"><path stroke="#000" d="M53.9 188.9h9m552.1 0h-9"/><text transform="translate(45.6 192.8)" stroke="none" fill="#000" font-family="Arial" font-size="12" text-anchor="end"><tspan>750</tspan></text></g><g fill="none" color="#000" stroke="currentColor"><path stroke="#000" d="M53.9 128.7h9m552.1 0h-9"/><text transform="translate(45.6 132.6)" stroke="none" fill="#000" font-family="Arial" font-size="12" text-anchor="end"><tspan>800</tspan></text></g><g fill="none" color="#000" stroke="currentColor"><path stroke="#000" d="M53.9 68.5h9m552.1 0h-9"/><text transform="translate(45.6 72.4)" stroke="none" fill="#000" font-family="Arial" font-size="12" text-anchor="end"><tspan>850</tspan></text></g><g fill="none" color="#000" stroke="currentColor"><path stroke="#000" d="M53.9 392v-9m0-364.9v9"/><text transform="translate(53.9 413.9)" stroke="none" fill="#000" font-family="Arial" font-size="12" text-anchor="middle"><tspan>0</tspan></text></g><g fill="none" color="#000" stroke="currentColor"><path stroke="#000" d="M110.6 392v-9m0-364.9v9"/><text transform="translate(110.6 413.9)" stroke="none" fill="#000" font-family="Arial" font-size="12" text-anchor="middle"><tspan>10</tspan></text></g><g fill="none" color="#000" stroke="currentColor"><path stroke="#000" d="M167.3 392v-9m0-364.9v9"/><text transform="translate(167.3 413.9)" stroke="none" fill="#000" font-family="Arial" font-size="12" text-anchor="middle"><tspan>20</tspan></text></g><g fill="none" color="#000" stroke="currentColor"><path stroke="#000" d="M223.9 392v-9m0-364.9v9"/><text transform="translate(223.9 413.9)" stroke="none" fill="#000" font-family="Arial" font-size="12" text-anchor="middle"><tspan>30</tspan></text></g><g fill="none" color="#000" stroke="currentColor"><path stroke="#000" d="M280.6 392v-9m0-364.9v9"/><text transform="translate(280.6 413.9)" stroke="none" fill="#000" font-family="Arial" font-size="12" text-anchor="middle"><tspan>40</tspan></text></g><g fill="none" color="#000" stroke="currentColor"><path stroke="#000" d="M337.3 392v-9m0-364.9v9"/><text transform="translate(337.3 413.9)" stroke="none" fill="#000" font-family="Arial" font-size="12" text-anchor="middle"><tspan>50</tspan></text></g><g fill="none" color="#000" stroke="currentColor"><path stroke="#000" d="M394 392v-9m0-364.9v9"/><text transform="translate(394 413.9)" stroke="none" fill="#000" font-family="Arial" font-size="12" text-anchor="middle"><tspan>60</tspan></text></g><g fill="none" color="#000" stroke="currentColor"><path stroke="#000" d="M450.6 392v-9m0-364.9v9"/><text transform="translate(450.6 413.9)" stroke="none" fill="#000" font-family="Arial" font-size="12" text-anchor="middle"><tspan>70</tspan></text></g><g fill="none" color="#000" stroke="currentColor"><path stroke="#000" d="M507.3 392v-9m0-364.9v9"/><text transform="translate(507.3 413.9)" stroke="none" fill="#000" font-family="Arial" font-size="12" text-anchor="middle"><tspan>80</tspan></text></g><g fill="none" color="#000" stroke="currentColor"><path stroke="#000" d="M564 392v-9m0-364.9v9"/><text transform="translate(564 413.9)" stroke="none" fill="#000" font-family="Arial" font-size="12" text-anchor="middle"><tspan>90</tspan></text></g><path stroke="#000" d="M53.9 18.1V392H615V18.1H53.9z" fill="none" color="#000"/><text transform="translate(433.7 431.9)" stroke="none" fill="#000" font-family="Arial" font-size="12" text-anchor="end" color="#000"><tspan>pages+cached+noexternal</tspan></text><path stroke="#9400D3" d="M442 428h42.2M53.9 164.8l5.7-5.4 5.6-2.5 5.7-2.3 5.7-6 5.6-1.1 5.7-.9 5.7-2 5.6-6.3 5.7-.3 5.7-1.3 5.6-.1 5.7-.8 5.7-1.3 5.6-1.2 5.7-.9 5.7-.3 5.7-2.3 5.6-1.1 5.7-1.6 5.7-.1 5.6-.5 5.7-1.2 5.7-.4 5.6-.6 5.7-.5 5.7-1.1 5.6-2.7 5.7-.6h5.7l5.6-3.5 5.7-1.2 5.7-.7 5.6-.9 5.7-.4 5.7-.3 5.6-1 5.7-.2 5.7-.1 5.6-1.1 5.7-.6 5.7-.2 5.6-1.1 5.7-2 5.7-.3 5.6-.3 5.7-.5 5.7-1.5 5.6-.5 5.7-.4 5.7-.1 5.7-.3 5.6-1.1 5.7-.1h5.7l5.6-.2h5.7l5.7-.2 5.6-.6 5.7-1 5.7-1h5.6l5.7-.6 5.7-.2 5.6-1.3 5.7-1.2 5.7-.4 5.6-.3 5.7-1 5.7-1.3 5.6-.1 5.7-.1 5.7-2.8 5.6-.1h5.7l5.7-.8 5.6-.1 5.7-1.2 5.7-.2 5.6-.7 5.7-.6 5.7-.2 5.6-.2 5.7-.9 5.7-.2 5.7-.5 5.6-.4 5.7-2 5.7-2.1 5.6-.3 5.7-.6 5.7-1.6 5.6-1.6 5.7-.6 5.7-3.5 5.6-1.3 5.7-9.4 5.7-17.5 5.6-2.6 5.7-14.2" fill="none" color="#000"/><text transform="translate(433.7 449.9)" stroke="none" fill="#000" font-family="Arial" font-size="12" text-anchor="end" color="#000"><tspan>pages+cached+noexternal+nofonts</tspan></text><path stroke="#009E73" d="M442 446h42.2M53.9 384.8l5.7-28.3 5.6-5.7 5.7-1.5 5.7-3.7 5.6-.4 5.7-5.5 5.7-6.4h5.6l5.7-1 5.7-.9 5.6-.7 5.7-1.1 5.7-1.8 5.6-1.8 5.7-.4 5.7-3 5.7-.8 5.6-.1 5.7-4.1 5.7-1.1 5.6-.8 5.7-.5 5.7-2 5.6-2.8 5.7-.6 5.7-.7 5.6-1 5.7-.1 5.7-.4 5.6-.3 5.7-1.4 5.7-.3 5.6-.4 5.7-.4 5.7-.9 5.6-1.5 5.7-.4 5.7-.1 5.6-.4 5.7-1.1 5.7-.3 5.6-1.3 5.7-1.2 5.7-.1 5.6-.4 5.7-.9 5.7-.1 5.6-1.3 5.7-.1 5.7-.1 5.7-1.4 5.6-1 5.7-2.4 5.7-1.7 5.6-.7 5.7-.3h5.7l5.6-.4 5.7-.5h11.3l5.7-1.3 5.7-.9 5.6-.1 5.7-.7 5.7-.9 5.6-.2 5.7-.7 5.7-.4h5.6l5.7-.4 5.7-3.2 5.6-.2 5.7-.8 5.7-.4 5.6-.2 5.7-.2 5.7-.3h5.6l5.7-.5 5.7-.1 5.6-1.1h5.7l5.7-.5 5.7-1.9 5.6-1.1 5.7-.1 5.7-1.5 5.6-.5h5.7l5.7-.3 5.6-3 5.7-2.9 5.7-.3 5.6-.2L598 244l5.7-4.5 5.6-13.6 5.7-4.8" fill="none" color="#000"/><text transform="translate(433.7 467.9)" stroke="none" fill="#000" font-family="Arial" font-size="12" text-anchor="end" color="#000"><tspan>score p10=2017</tspan></text><path stroke="#56B4E9" d="M442 464h42.2" fill="none" color="#000"/><g><text transform="translate(433.7 485.9)" stroke="none" fill="#000" font-family="Arial" font-size="12" text-anchor="end" color="#000"><tspan>score median=4000</tspan></text><path stroke="#E69F00" d="M442 482h42.2" fill="none" color="#000"/></g><g fill="none" color="#000" stroke="currentColor"><path stroke="#000" d="M53.9 18.1V392H615V18.1H53.9z"/></g></svg>

<?xml version="1.0" encoding="utf-8"  standalone="no"?>
<svg 
 width="640" height="500"
 viewBox="0 0 640 500"
 xmlns="http://www.w3.org/2000/svg"
 xmlns:xlink="http://www.w3.org/1999/xlink"
>

<title>Gnuplot</title>
<desc>Produced by GNUPLOT 5.4 patchlevel 0 </desc>

<g id="gnuplot_canvas">

<rect x="0" y="0" width="640" height="500" fill="#ffffff"/>
<defs>

	<circle id='gpDot' r='0.5' stroke-width='0.5' stroke='currentColor'/>
	<path id='gpPt0' stroke-width='0.222' stroke='currentColor' d='M-1,0 h2 M0,-1 v2'/>
	<path id='gpPt1' stroke-width='0.222' stroke='currentColor' d='M-1,-1 L1,1 M1,-1 L-1,1'/>
	<path id='gpPt2' stroke-width='0.222' stroke='currentColor' d='M-1,0 L1,0 M0,-1 L0,1 M-1,-1 L1,1 M-1,1 L1,-1'/>
	<rect id='gpPt3' stroke-width='0.222' stroke='currentColor' x='-1' y='-1' width='2' height='2'/>
	<rect id='gpPt4' stroke-width='0.222' stroke='currentColor' fill='currentColor' x='-1' y='-1' width='2' height='2'/>
	<circle id='gpPt5' stroke-width='0.222' stroke='currentColor' cx='0' cy='0' r='1'/>
	<use xlink:href='#gpPt5' id='gpPt6' fill='currentColor' stroke='none'/>
	<path id='gpPt7' stroke-width='0.222' stroke='currentColor' d='M0,-1.33 L-1.33,0.67 L1.33,0.67 z'/>
	<use xlink:href='#gpPt7' id='gpPt8' fill='currentColor' stroke='none'/>
	<use xlink:href='#gpPt7' id='gpPt9' stroke='currentColor' transform='rotate(180)'/>
	<use xlink:href='#gpPt9' id='gpPt10' fill='currentColor' stroke='none'/>
	<use xlink:href='#gpPt3' id='gpPt11' stroke='currentColor' transform='rotate(45)'/>
	<use xlink:href='#gpPt11' id='gpPt12' fill='currentColor' stroke='none'/>
	<path id='gpPt13' stroke-width='0.222' stroke='currentColor' d='M0,1.330 L1.265,0.411 L0.782,-1.067 L-0.782,-1.076 L-1.265,0.411 z'/>
	<use xlink:href='#gpPt13' id='gpPt14' fill='currentColor' stroke='none'/>
	<filter id='textbox' filterUnits='objectBoundingBox' x='0' y='0' height='1' width='1'>
	  <feFlood flood-color='#FFFFFF' flood-opacity='1' result='bgnd'/>
	  <feComposite in='SourceGraphic' in2='bgnd' operator='atop'/>
	</filter>
	<filter id='greybox' filterUnits='objectBoundingBox' x='0' y='0' height='1' width='1'>
	  <feFlood flood-color='lightgrey' flood-opacity='1' result='grey'/>
	  <feComposite in='SourceGraphic' in2='grey' operator='atop'/>
	</filter>
</defs>
<g fill="none" color="#FFFFFF" stroke="black" stroke-width="1.00" stroke-linecap="butt" stroke-linejoin="miter">
</g>
<g fill="none" color="black" stroke="currentColor" stroke-width="1.00" stroke-linecap="butt" stroke-linejoin="miter">
	<path stroke='black'  d='M53.9,369.4 L62.9,369.4 M615.0,369.4 L606.0,369.4  '/>	<g transform="translate(45.6,373.3)" stroke="none" fill="black" font-family="Arial" font-size="12.00"  text-anchor="end">
		<text><tspan font-family="Arial" > 600</tspan></text>
	</g>
</g>
<g fill="none" color="black" stroke="currentColor" stroke-width="1.00" stroke-linecap="butt" stroke-linejoin="miter">
	<path stroke='black'  d='M53.9,309.2 L62.9,309.2 M615.0,309.2 L606.0,309.2  '/>	<g transform="translate(45.6,313.1)" stroke="none" fill="black" font-family="Arial" font-size="12.00"  text-anchor="end">
		<text><tspan font-family="Arial" > 650</tspan></text>
	</g>
</g>
<g fill="none" color="black" stroke="currentColor" stroke-width="1.00" stroke-linecap="butt" stroke-linejoin="miter">
	<path stroke='black'  d='M53.9,249.1 L62.9,249.1 M615.0,249.1 L606.0,249.1  '/>	<g transform="translate(45.6,253.0)" stroke="none" fill="black" font-family="Arial" font-size="12.00"  text-anchor="end">
		<text><tspan font-family="Arial" > 700</tspan></text>
	</g>
</g>
<g fill="none" color="black" stroke="currentColor" stroke-width="1.00" stroke-linecap="butt" stroke-linejoin="miter">
	<path stroke='black'  d='M53.9,188.9 L62.9,188.9 M615.0,188.9 L606.0,188.9  '/>	<g transform="translate(45.6,192.8)" stroke="none" fill="black" font-family="Arial" font-size="12.00"  text-anchor="end">
		<text><tspan font-family="Arial" > 750</tspan></text>
	</g>
</g>
<g fill="none" color="black" stroke="currentColor" stroke-width="1.00" stroke-linecap="butt" stroke-linejoin="miter">
	<path stroke='black'  d='M53.9,128.7 L62.9,128.7 M615.0,128.7 L606.0,128.7  '/>	<g transform="translate(45.6,132.6)" stroke="none" fill="black" font-family="Arial" font-size="12.00"  text-anchor="end">
		<text><tspan font-family="Arial" > 800</tspan></text>
	</g>
</g>
<g fill="none" color="black" stroke="currentColor" stroke-width="1.00" stroke-linecap="butt" stroke-linejoin="miter">
	<path stroke='black'  d='M53.9,68.5 L62.9,68.5 M615.0,68.5 L606.0,68.5  '/>	<g transform="translate(45.6,72.4)" stroke="none" fill="black" font-family="Arial" font-size="12.00"  text-anchor="end">
		<text><tspan font-family="Arial" > 850</tspan></text>
	</g>
</g>
<g fill="none" color="black" stroke="currentColor" stroke-width="1.00" stroke-linecap="butt" stroke-linejoin="miter">
	<path stroke='black'  d='M53.9,392.0 L53.9,383.0 M53.9,18.1 L53.9,27.1  '/>	<g transform="translate(53.9,413.9)" stroke="none" fill="black" font-family="Arial" font-size="12.00"  text-anchor="middle">
		<text><tspan font-family="Arial" > 0</tspan></text>
	</g>
</g>
<g fill="none" color="black" stroke="currentColor" stroke-width="1.00" stroke-linecap="butt" stroke-linejoin="miter">
	<path stroke='black'  d='M110.6,392.0 L110.6,383.0 M110.6,18.1 L110.6,27.1  '/>	<g transform="translate(110.6,413.9)" stroke="none" fill="black" font-family="Arial" font-size="12.00"  text-anchor="middle">
		<text><tspan font-family="Arial" > 10</tspan></text>
	</g>
</g>
<g fill="none" color="black" stroke="currentColor" stroke-width="1.00" stroke-linecap="butt" stroke-linejoin="miter">
	<path stroke='black'  d='M167.3,392.0 L167.3,383.0 M167.3,18.1 L167.3,27.1  '/>	<g transform="translate(167.3,413.9)" stroke="none" fill="black" font-family="Arial" font-size="12.00"  text-anchor="middle">
		<text><tspan font-family="Arial" > 20</tspan></text>
	</g>
</g>
<g fill="none" color="black" stroke="currentColor" stroke-width="1.00" stroke-linecap="butt" stroke-linejoin="miter">
	<path stroke='black'  d='M223.9,392.0 L223.9,383.0 M223.9,18.1 L223.9,27.1  '/>	<g transform="translate(223.9,413.9)" stroke="none" fill="black" font-family="Arial" font-size="12.00"  text-anchor="middle">
		<text><tspan font-family="Arial" > 30</tspan></text>
	</g>
</g>
<g fill="none" color="black" stroke="currentColor" stroke-width="1.00" stroke-linecap="butt" stroke-linejoin="miter">
	<path stroke='black'  d='M280.6,392.0 L280.6,383.0 M280.6,18.1 L280.6,27.1  '/>	<g transform="translate(280.6,413.9)" stroke="none" fill="black" font-family="Arial" font-size="12.00"  text-anchor="middle">
		<text><tspan font-family="Arial" > 40</tspan></text>
	</g>
</g>
<g fill="none" color="black" stroke="currentColor" stroke-width="1.00" stroke-linecap="butt" stroke-linejoin="miter">
	<path stroke='black'  d='M337.3,392.0 L337.3,383.0 M337.3,18.1 L337.3,27.1  '/>	<g transform="translate(337.3,413.9)" stroke="none" fill="black" font-family="Arial" font-size="12.00"  text-anchor="middle">
		<text><tspan font-family="Arial" > 50</tspan></text>
	</g>
</g>
<g fill="none" color="black" stroke="currentColor" stroke-width="1.00" stroke-linecap="butt" stroke-linejoin="miter">
	<path stroke='black'  d='M394.0,392.0 L394.0,383.0 M394.0,18.1 L394.0,27.1  '/>	<g transform="translate(394.0,413.9)" stroke="none" fill="black" font-family="Arial" font-size="12.00"  text-anchor="middle">
		<text><tspan font-family="Arial" > 60</tspan></text>
	</g>
</g>
<g fill="none" color="black" stroke="currentColor" stroke-width="1.00" stroke-linecap="butt" stroke-linejoin="miter">
	<path stroke='black'  d='M450.6,392.0 L450.6,383.0 M450.6,18.1 L450.6,27.1  '/>	<g transform="translate(450.6,413.9)" stroke="none" fill="black" font-family="Arial" font-size="12.00"  text-anchor="middle">
		<text><tspan font-family="Arial" > 70</tspan></text>
	</g>
</g>
<g fill="none" color="black" stroke="currentColor" stroke-width="1.00" stroke-linecap="butt" stroke-linejoin="miter">
	<path stroke='black'  d='M507.3,392.0 L507.3,383.0 M507.3,18.1 L507.3,27.1  '/>	<g transform="translate(507.3,413.9)" stroke="none" fill="black" font-family="Arial" font-size="12.00"  text-anchor="middle">
		<text><tspan font-family="Arial" > 80</tspan></text>
	</g>
</g>
<g fill="none" color="black" stroke="currentColor" stroke-width="1.00" stroke-linecap="butt" stroke-linejoin="miter">
	<path stroke='black'  d='M564.0,392.0 L564.0,383.0 M564.0,18.1 L564.0,27.1  '/>	<g transform="translate(564.0,413.9)" stroke="none" fill="black" font-family="Arial" font-size="12.00"  text-anchor="middle">
		<text><tspan font-family="Arial" > 90</tspan></text>
	</g>
</g>
<g fill="none" color="black" stroke="currentColor" stroke-width="1.00" stroke-linecap="butt" stroke-linejoin="miter">
</g>
<g fill="none" color="black" stroke="currentColor" stroke-width="1.00" stroke-linecap="butt" stroke-linejoin="miter">
	<path stroke='black'  d='M53.9,18.1 L53.9,392.0 L615.0,392.0 L615.0,18.1 L53.9,18.1 Z  '/></g>
<g fill="none" color="black" stroke="currentColor" stroke-width="1.00" stroke-linecap="butt" stroke-linejoin="miter">
</g>
	<g id="gnuplot_plot_1" ><title>pages+cached+noexternal</title>
<g fill="none" color="black" stroke="currentColor" stroke-width="1.00" stroke-linecap="butt" stroke-linejoin="miter">
	<g transform="translate(433.7,431.9)" stroke="none" fill="black" font-family="Arial" font-size="12.00"  text-anchor="end">
		<text><tspan font-family="Arial" >pages+cached+noexternal</tspan></text>
	</g>
</g>
<g fill="none" color="black" stroke="currentColor" stroke-width="1.00" stroke-linecap="butt" stroke-linejoin="miter">
	<path stroke='rgb(148,   0, 211)'  d='M442.0,428.0 L484.2,428.0 M53.9,164.8 L59.6,159.4 L65.2,156.9 L70.9,154.6 L76.6,148.6 L82.2,147.5
		L87.9,146.6 L93.6,144.6 L99.2,138.3 L104.9,138.0 L110.6,136.7 L116.2,136.6 L121.9,135.8 L127.6,134.5
		L133.2,133.3 L138.9,132.4 L144.6,132.1 L150.3,129.8 L155.9,128.7 L161.6,127.1 L167.3,127.0 L172.9,126.5
		L178.6,125.3 L184.3,124.9 L189.9,124.3 L195.6,123.8 L201.3,122.7 L206.9,120.0 L212.6,119.4 L218.3,119.4
		L223.9,115.9 L229.6,114.7 L235.3,114.0 L240.9,113.1 L246.6,112.7 L252.3,112.4 L257.9,111.4 L263.6,111.2
		L269.3,111.1 L274.9,110.0 L280.6,109.4 L286.3,109.2 L291.9,108.1 L297.6,106.1 L303.3,105.8 L308.9,105.5
		L314.6,105.0 L320.3,103.5 L325.9,103.0 L331.6,102.6 L337.3,102.5 L343.0,102.2 L348.6,101.1 L354.3,101.0
		L360.0,101.0 L365.6,100.8 L371.3,100.8 L377.0,100.6 L382.6,100.0 L388.3,99.0 L394.0,98.0 L399.6,98.0
		L405.3,97.4 L411.0,97.2 L416.6,95.9 L422.3,94.7 L428.0,94.3 L433.6,94.0 L439.3,93.0 L445.0,91.7
		L450.6,91.6 L456.3,91.5 L462.0,88.7 L467.6,88.6 L473.3,88.6 L479.0,87.8 L484.6,87.7 L490.3,86.5
		L496.0,86.3 L501.6,85.6 L507.3,85.0 L513.0,84.8 L518.6,84.6 L524.3,83.7 L530.0,83.5 L535.7,83.0
		L541.3,82.6 L547.0,80.6 L552.7,78.5 L558.3,78.2 L564.0,77.6 L569.7,76.0 L575.3,74.4 L581.0,73.8
		L586.7,70.3 L592.3,69.0 L598.0,59.6 L603.7,42.1 L609.3,39.5 L615.0,25.3  '/></g>
	</g>
	<g id="gnuplot_plot_2" ><title>pages+cached+noexternal+nofonts</title>
<g fill="none" color="black" stroke="currentColor" stroke-width="1.00" stroke-linecap="butt" stroke-linejoin="miter">
	<g transform="translate(433.7,449.9)" stroke="none" fill="black" font-family="Arial" font-size="12.00"  text-anchor="end">
		<text><tspan font-family="Arial" >pages+cached+noexternal+nofonts</tspan></text>
	</g>
</g>
<g fill="none" color="black" stroke="currentColor" stroke-width="1.00" stroke-linecap="butt" stroke-linejoin="miter">
	<path stroke='rgb(  0, 158, 115)'  d='M442.0,446.0 L484.2,446.0 M53.9,384.8 L59.6,356.5 L65.2,350.8 L70.9,349.3 L76.6,345.6 L82.2,345.2
		L87.9,339.7 L93.6,333.3 L99.2,333.3 L104.9,332.3 L110.6,331.4 L116.2,330.7 L121.9,329.6 L127.6,327.8
		L133.2,326.0 L138.9,325.6 L144.6,322.6 L150.3,321.8 L155.9,321.7 L161.6,317.6 L167.3,316.5 L172.9,315.7
		L178.6,315.2 L184.3,313.2 L189.9,310.4 L195.6,309.8 L201.3,309.1 L206.9,308.1 L212.6,308.0 L218.3,307.6
		L223.9,307.3 L229.6,305.9 L235.3,305.6 L240.9,305.2 L246.6,304.8 L252.3,303.9 L257.9,302.4 L263.6,302.0
		L269.3,301.9 L274.9,301.5 L280.6,300.4 L286.3,300.1 L291.9,298.8 L297.6,297.6 L303.3,297.5 L308.9,297.1
		L314.6,296.2 L320.3,296.1 L325.9,294.8 L331.6,294.7 L337.3,294.6 L343.0,293.2 L348.6,292.2 L354.3,289.8
		L360.0,288.1 L365.6,287.4 L371.3,287.1 L377.0,287.1 L382.6,286.7 L388.3,286.2 L394.0,286.2 L399.6,286.2
		L405.3,284.9 L411.0,284.0 L416.6,283.9 L422.3,283.2 L428.0,282.3 L433.6,282.1 L439.3,281.4 L445.0,281.0
		L450.6,281.0 L456.3,280.6 L462.0,277.4 L467.6,277.2 L473.3,276.4 L479.0,276.0 L484.6,275.8 L490.3,275.6
		L496.0,275.3 L501.6,275.3 L507.3,274.8 L513.0,274.7 L518.6,273.6 L524.3,273.6 L530.0,273.1 L535.7,271.2
		L541.3,270.1 L547.0,270.0 L552.7,268.5 L558.3,268.0 L564.0,268.0 L569.7,267.7 L575.3,264.7 L581.0,261.8
		L586.7,261.5 L592.3,261.3 L598.0,244.0 L603.7,239.5 L609.3,225.9 L615.0,221.1  '/></g>
	</g>
	<g id="gnuplot_plot_3" ><title>score p10=2017</title>
<g fill="none" color="black" stroke="currentColor" stroke-width="1.00" stroke-linecap="butt" stroke-linejoin="miter">
	<g transform="translate(433.7,467.9)" stroke="none" fill="black" font-family="Arial" font-size="12.00"  text-anchor="end">
		<text><tspan font-family="Arial" >score p10=2017</tspan></text>
	</g>
</g>
<g fill="none" color="black" stroke="currentColor" stroke-width="1.00" stroke-linecap="butt" stroke-linejoin="miter">
	<path stroke='rgb( 86, 180, 233)'  d='M442.0,464.0 L484.2,464.0  '/></g>
	</g>
	<g id="gnuplot_plot_4" ><title>score median=4000</title>
<g fill="none" color="black" stroke="currentColor" stroke-width="1.00" stroke-linecap="butt" stroke-linejoin="miter">
	<g transform="translate(433.7,485.9)" stroke="none" fill="black" font-family="Arial" font-size="12.00"  text-anchor="end">
		<text><tspan font-family="Arial" >score median=4000</tspan></text>
	</g>
</g>
<g fill="none" color="black" stroke="currentColor" stroke-width="1.00" stroke-linecap="butt" stroke-linejoin="miter">
	<path stroke='rgb(230, 159,   0)'  d='M442.0,482.0 L484.2,482.0  '/></g>
	</g>
<g fill="none" color="#FFFFFF" stroke="rgb(230, 159,   0)" stroke-width="2.00" stroke-linecap="butt" stroke-linejoin="miter">
</g>
<g fill="none" color="black" stroke="currentColor" stroke-width="2.00" stroke-linecap="butt" stroke-linejoin="miter">
</g>
<g fill="none" color="black" stroke="black" stroke-width="1.00" stroke-linecap="butt" stroke-linejoin="miter">
</g>
<g fill="none" color="black" stroke="currentColor" stroke-width="1.00" stroke-linecap="butt" stroke-linejoin="miter">
	<path stroke='black'  d='M53.9,18.1 L53.9,392.0 L615.0,392.0 L615.0,18.1 L53.9,18.1 Z  '/></g>
<g fill="none" color="black" stroke="currentColor" stroke-width="1.00" stroke-linecap="butt" stroke-linejoin="miter">
</g>
</g>
</svg>
